X: 033
T: Mrs Hepburn of Clerkington's Reel
C: attr. John French (1753-1803)
R: reel
B: "John French Collection", John French ed. p.3 #3
S: http://www.heallan.com/french.asp
Z: 2012 John Chambers <jc:trillian.mit.edu>
M: 4/4
L: 1/8
K: Dmix
A | d2(AG) FDAF | Ec-cG ECC^c | d2(AG) FDAF | EcGE FD-D :: d | Adfd adfd |
Gcec gcec |[1 Adfd adfd | eg^ce dD-D :|[2 dfeg fagb | afe^c dfef |]

%%sep 2 1 500
%%sep 1 1 500

